src/xmb/retrosystem/Mattel - Intellivision-content.svg

<?xml version="1.0" encoding="UTF-8" standalone="no"?>
<svg
   xmlns:dc="http://purl.org/dc/elements/1.1/"
   xmlns:cc="http://creativecommons.org/ns#"
   xmlns:rdf="http://www.w3.org/1999/02/22-rdf-syntax-ns#"
   xmlns:svg="http://www.w3.org/2000/svg"
   xmlns="http://www.w3.org/2000/svg"
   xmlns:sodipodi="http://sodipodi.sourceforge.net/DTD/sodipodi-0.dtd"
   xmlns:inkscape="http://www.inkscape.org/namespaces/inkscape"
   viewBox="0 0 341.33334 341.33334"
   height="256"
   width="256"
   xml:space="preserve"
   id="svg2"
   version="1.1"
   sodipodi:docname="Mattel - Intellevision-content.svg"
   inkscape:version="0.92.2 (5c3e80d, 2017-08-06)"><sodipodi:namedview
     pagecolor="#ffffff"
     bordercolor="#666666"
     borderopacity="1"
     objecttolerance="10"
     gridtolerance="10"
     guidetolerance="10"
     inkscape:pageopacity="0"
     inkscape:pageshadow="2"
     inkscape:window-width="1024"
     inkscape:window-height="705"
     id="namedview31"
     showgrid="false"
     inkscape:pagecheckerboard="true"
     inkscape:zoom="1.9555921"
     inkscape:cx="129.42794"
     inkscape:cy="179.15272"
     inkscape:window-x="-8"
     inkscape:window-y="-8"
     inkscape:window-maximized="1"
     inkscape:current-layer="svg2" /><metadata
     id="metadata8"><rdf:RDF><cc:Work
         rdf:about=""><dc:format>image/svg+xml</dc:format><dc:type
           rdf:resource="http://purl.org/dc/dcmitype/StillImage" /><dc:title /></cc:Work></rdf:RDF></metadata><defs
     id="defs6"><clipPath
       id="clipPath18"
       clipPathUnits="userSpaceOnUse"><path
         id="path16"
         d="M 0,256 H 256 V 0 H 0 Z" /></clipPath><clipPath
       id="clipPath26"
       clipPathUnits="userSpaceOnUse"><path
         id="path24"
         d="M 27.361,252 H 228.639 V 8 H 27.361 Z" /></clipPath><clipPath
       id="clipPath44"
       clipPathUnits="userSpaceOnUse"><path
         id="path42"
         d="M 0,256 H 256 V 0 H 0 Z" /></clipPath></defs><path
     inkscape:connector-curvature="0"
     d="M 287.99999,149.33333 H 53.333332 V 80.000003 H 287.99999 Z"
     style="fill:#1a1a1a;fill-opacity:1;fill-rule:nonzero;stroke:none;stroke-width:1.33333325"
     id="path36" /><path
     id="path48"
     style="fill:#2d2d2d;fill-opacity:1;fill-rule:nonzero;stroke:none;stroke-width:1.33333325"
     d="m 224.22919,101.33334 h 69.104 v -5.333333 h -69.33333 c -2.94534,0 -5.33334,-2.388 -5.33334,-5.333333 V 80.000007 h -95.99999 v 10.666667 c 0,2.945333 -2.388,5.333333 -5.33334,5.333333 H 47.999861 v 5.333333 h 69.103999 c 2.78533,0 5.27333,2.036 5.53867,4.80933 0.30266,3.18134 -2.19067,5.85734 -5.30934,5.85734 H 47.999861 v 5.33333 h 69.103999 c 2.78533,0 5.27333,2.036 5.53867,4.80933 0.30266,3.18134 -2.19067,5.85734 -5.30934,5.85734 H 47.999861 v 5.33333 h 69.333329 c 2.94534,0 5.33334,2.388 5.33334,5.33333 0,2.94534 -2.388,5.33334 -5.33334,5.33334 H 47.999861 V 320 H 293.33319 V 144.00001 h -69.33333 c -2.94534,0 -5.33334,-2.388 -5.33334,-5.33334 0,-2.94533 2.388,-5.33333 5.33334,-5.33333 h 69.33333 v -5.33333 h -69.104 c -2.78533,0 -5.27333,-2.036 -5.53733,-4.80934 -0.304,-3.18133 2.18933,-5.85733 5.308,-5.85733 h 69.33333 v -5.33333 h -69.33333 c -3.11867,0 -5.612,-2.676 -5.308,-5.85734 0.264,-2.77333 2.752,-4.80933 5.53733,-4.80933"
     inkscape:connector-curvature="0" /><path
     id="path52"
     style="fill:#2d2d2d;fill-opacity:1;fill-rule:nonzero;stroke:none;stroke-width:1.33333325"
     d="M 287.99999,16.000005 H 53.333329 L 47.999996,85.333337 H 293.33332 Z"
     inkscape:connector-curvature="0" /><path
     id="path56"
     style="fill:#1a1a1a;fill-opacity:1;fill-rule:nonzero;stroke:none;stroke-width:1.33333325"
     d="M 285.33333,160 H 56.000002 c -1.472,0 -2.666666,-1.19467 -2.666666,-2.66667 0,-1.472 1.194666,-2.66666 2.666666,-2.66666 H 285.33333 c 1.472,0 2.66667,1.19466 2.66667,2.66666 0,1.472 -1.19467,2.66667 -2.66667,2.66667"
     inkscape:connector-curvature="0" /><path
     id="path60"
     style="fill:#ffffff;fill-opacity:1;fill-rule:nonzero;stroke:none;stroke-width:1.33333325"
     d="m 273.56253,36.924538 c -0.21333,-2.778667 -2.53067,-4.924 -5.31733,-4.924 H 73.089202 c -2.786667,0 -5.104,2.145333 -5.318667,4.924 l -2.050666,26.666666 c -0.238667,3.097333 2.210666,5.742667 5.317333,5.742667 H 270.29586 c 3.10667,0 5.556,-2.645334 5.31734,-5.742667 z"
     inkscape:connector-curvature="0" /><g
     id="g872"
     transform="translate(-27.962478,-188.45898)"
     style="fill:#1a1a1a"><g
       transform="matrix(1.3333333,0,0,-1.3333333,161.29535,247.12598)"
       id="g102"
       style="fill:#1a1a1a"><path
         id="path104"
         style="fill:#1a1a1a;fill-opacity:1;fill-rule:nonzero;stroke:none"
         d="M 0,0 14.062,12 V 6.757 L 20.009,12 V 3.946 c 0,0 4.088,7.676 4.336,7.676 0.248,0 9.726,-0.054 9.726,-0.054 L 32.522,8.757 H 26.885 L 26.08,7.243 h 3.159 L 27.381,4.108 H 24.965 L 24.283,2.865 h 11.398 l 0.744,1.189 h -5.699 l 4.398,7.622 h 9.911 L 43.301,8.703 h -5.637 l -0.929,-1.46 h 5.823 L 38.469,0 H 15.735 L 15.858,3.892 11.336,0 11.15,3.946 6.628,0 Z"
         inkscape:connector-curvature="0" /></g><g
       transform="matrix(1.3333333,0,0,-1.3333333,221.34254,231.7025)"
       id="g106"
       style="fill:#1a1a1a"><path
         id="path108"
         style="fill:#1a1a1a;fill-opacity:1;fill-rule:nonzero;stroke:none"
         d="M 0,0 C 0,0 -0.044,0 -0.121,0.001 L -1.215,-2.205 Z"
         inkscape:connector-curvature="0" /></g><g
       transform="matrix(1.3333333,0,0,-1.3333333,233.64934,235.52238)"
       id="g110"
       style="fill:#1a1a1a"><path
         id="path112"
         style="fill:#1a1a1a;fill-opacity:1;fill-rule:nonzero;stroke:none"
         d="m 0,0 1.735,2.973 h -9.912 l -4.398,-7.622 h 5.699 l -0.743,-1.189 h -5.493 l -1.684,-2.865 h 9.964 l 4.089,7.244 H -6.566 L -5.637,0 Z"
         inkscape:connector-curvature="0" /></g></g></svg>

<svg xmlns="http://www.w3.org/2000/svg" xml:space="preserve" width="256" height="256" viewBox="0 0 341.333 341.333"><path d="M288 149.333H53.333V80H288Z" style="fill:#1a1a1a;fill-opacity:1;fill-rule:nonzero;stroke:none;stroke-width:1.33333325"/><path d="M224.23 101.333h69.103V96H224a5.334 5.334 0 0 1-5.333-5.333V80h-96v10.667A5.334 5.334 0 0 1 117.333 96H48v5.333h69.104c2.785 0 5.273 2.036 5.539 4.81a5.335 5.335 0 0 1-5.31 5.857H48v5.333h69.104c2.785 0 5.273 2.036 5.539 4.81a5.335 5.335 0 0 1-5.31 5.857H48v5.333h69.333a5.334 5.334 0 0 1 0 10.667H48v176h245.333V144H224a5.334 5.334 0 0 1 0-10.667h69.333V128H224.23c-2.785 0-5.273-2.036-5.537-4.81a5.334 5.334 0 0 1 5.308-5.857h69.333V112H224a5.334 5.334 0 0 1-5.308-5.857c.264-2.774 2.752-4.81 5.537-4.81" style="fill:#2d2d2d;fill-opacity:1;fill-rule:nonzero;stroke:none;stroke-width:1.33333325"/><path d="M288 16H53.333L48 85.333h245.333Z" style="fill:#2d2d2d;fill-opacity:1;fill-rule:nonzero;stroke:none;stroke-width:1.33333325"/><path d="M285.333 160H56a2.668 2.668 0 0 1 0-5.333h229.333a2.668 2.668 0 0 1 0 5.333" style="fill:#1a1a1a;fill-opacity:1;fill-rule:nonzero;stroke:none;stroke-width:1.33333325"/><path d="M273.563 36.925A5.333 5.333 0 0 0 268.245 32H73.09a5.335 5.335 0 0 0-5.318 4.924L65.72 63.59a5.333 5.333 0 0 0 5.317 5.743h199.259a5.333 5.333 0 0 0 5.317-5.743z" style="fill:#fff;fill-opacity:1;fill-rule:nonzero;stroke:none;stroke-width:1.33333325"/><g style="fill:#1a1a1a"><g style="fill:#1a1a1a"><path d="m0 0 14.062 12V6.757L20.009 12V3.946s4.088 7.676 4.336 7.676 9.726-.054 9.726-.054l-1.549-2.811h-5.637l-.805-1.514h3.159l-1.858-3.135h-2.416l-.682-1.243h11.398l.744 1.189h-5.699l4.398 7.622h9.911l-1.734-2.973h-5.637l-.929-1.46h5.823L38.469 0H15.735l.123 3.892L11.336 0l-.186 3.946L6.628 0Z" style="fill:#1a1a1a;fill-opacity:1;fill-rule:nonzero;stroke:none" transform="matrix(1.33333 0 0 -1.33333 133.333 58.667)"/></g><g style="fill:#1a1a1a"><path d="m0 0-.121.001-1.094-2.206Z" style="fill:#1a1a1a;fill-opacity:1;fill-rule:nonzero;stroke:none" transform="matrix(1.33333 0 0 -1.33333 193.38 43.244)"/></g><g style="fill:#1a1a1a"><path d="m0 0 1.735 2.973h-9.912l-4.398-7.622h5.699l-.743-1.189h-5.493l-1.684-2.865h9.964l4.089 7.244h-5.823L-5.637 0Z" style="fill:#1a1a1a;fill-opacity:1;fill-rule:nonzero;stroke:none" transform="matrix(1.33333 0 0 -1.33333 205.687 47.063)"/></g></g></svg>
